X:1
T:J. B. Herbert
T:Whee There's Drink, There's Danger
%%score { ( 1 4 ) | ( 2 3 ) }
L:1/8
M:2/4
K:Bb
V:1 treble 
V:4 treble 
V:2 bass 
V:3 bass 
V:1
 z4 | z4 | z4 | z4 |[K:treble-8]"^2d. Tenor" z4 | z4 |"^1st Tenor" z4 | z4 | z4 | z4 | z4 | %11
[Q:1/4=60]"^Ballad" z4[Q:1/4=48] |] %12
V:2
"^2d Bass" z4 | z4 |"^1st Bass" z4 | z4 | z4 | z4 | z4 | z4 | CA, F,[B,,F,] | [B,,=E,]2 [B,,F,]2 | %10
 DB, G,E, | [B,,E,]2 [B,,D,]2 |] %12
V:3
{/x} B,,C, D,G, | F,D, B,,2 | D,F, B,C | B,G, F,2 | x4 | x4 | x4 | x4 | x4 | x4 | x4 | x4 |] %12
w: Write it on the|liq\- uor store,|Write it on the|pris\- on door,|||||||||
w: Write it on the|work\- house gate,|Write it on the|school\- boy's slate,|||||||||
w: Write it on the|na\- tion's laws,|Tramp\- ling out the|li\- cense clause,|||||||||
w: Write it o\- ver|ev\- 'ry gate,|On the church, the|halls of state,|||||||||
V:4
 x4 | x4 | x4 | x4 |[K:treble-8] FA dc | AF c2 | cd =ec | BG F2 | ec A[Bd] | [G^c]2 [Bd]2 | %10
w: ||||Write it on the|gin\- shop fine,|Write, aye write this|truth\- ful line\-|"Where there's drink there's|dan\- ger;"|
w: ||||Write it on the|cop\- y\- book,|Where the young may|of\- ten look\-|"Where there's drink there's|dan\- ger;"|
w: ||||Write it on the|bal\- lot white,|So it can be|read a\- right:|"Where there's drink there's|dan\- ger;"|
w: ||||In the heart of|ev\- 'ry band,|On the laws of|ev\- 'ry land\-|"Where there's drink there's|dan\- ger;"|
 fd B"^rall."[GB] | [_GB]2"^Largo" [FB]2 |] %12
w: "Where there's drink there's|dan\- ger."|
w: "Where there's drink there's|dan\- ger."|
w: "Where there's drink there's|dan- ger."|
w: "Where there's drink there's|dan\- ger."|

